src/svgs/smartphone.svg

<?xml version="1.0" encoding="utf-8"?>
<!-- Generated by IcoMoon.io -->
<!DOCTYPE svg PUBLIC "-//W3C//DTD SVG 1.1//EN" "http://www.w3.org/Graphics/SVG/1.1/DTD/svg11.dtd">
<svg version="1.1" xmlns="http://www.w3.org/2000/svg" xmlns:xlink="http://www.w3.org/1999/xlink" width="32" height="32" viewBox="0 0 32 32">
<path d="M23.467 0.667h-14.791c-0.747 0-1.333 0.604-1.333 1.333v29.333c0 0.747 0.604 1.333 1.333 1.333h14.791c0.747 0 1.333-0.604 1.333-1.333v-29.333c0.018-0.729-0.587-1.333-1.333-1.333zM14.222 1.716h3.876c0.142 0 0.213 0.107 0.213 0.213 0 0.142-0.107 0.213-0.213 0.213h-3.876c-0.142 0-0.213-0.107-0.213-0.213-0.036-0.107 0.071-0.213 0.213-0.213zM16.16 31.582c-0.533 0-0.942-0.427-0.942-0.942 0-0.533 0.427-0.942 0.942-0.942 0.533 0 0.942 0.427 0.942 0.942s-0.409 0.942-0.942 0.942zM22.702 28.791h-13.12v-25.671h13.12v25.671z"></path>
</svg>

<svg xmlns="http://www.w3.org/2000/svg" width="32" height="32" viewBox="0 0 32 32">
    <path d="M23.467.667H8.676A1.33 1.33 0 0 0 7.343 2v29.333a1.33 1.33 0 0 0 1.333 1.333h14.791a1.33 1.33 0 0 0 1.333-1.333V2c.018-.729-.587-1.333-1.333-1.333zm-9.245 1.049h3.876c.142 0 .213.107.213.213 0 .142-.107.213-.213.213h-3.876c-.142 0-.213-.107-.213-.213-.036-.107.071-.213.213-.213zm1.938 29.866a.937.937 0 0 1-.942-.942c0-.533.427-.942.942-.942.533 0 .942.427.942.942s-.409.942-.942.942zm6.542-2.791H9.582V3.12h13.12v25.671z"/>
</svg>
